X: 27
T: New Pierot
%R: march, reel
B: Daniel Wright "Wright's Compleat Collection of Celebrated Country Dances" 1740 p.14
S: http://library.efdss.org/cgi-bin/dancebooks.cgi
Z: 2014 John Chambers <jc:trillian.mit.edu>
M: C|
L: 1/8
K: D
% - - - - - - - - - - - - - - - - - - - - - - - - -
[|\
A2Bc d2d2 | c2B2 A4 | Bcd2 cde2 | A2c2 d4 |]|\
f2A2 A4 | a2A2 A4 | cde2 Bcd2 | ^GABG A4 | FGA2 A4 |
EFG2 G4 | F2EF D2d2 | e2c2 d2"^:S:"fg | a2gf efge |\
f2ef defg | a2gf e2fg | f4 z2fg | a2gf e2fg | f2ef defg |
a2gf e2fg | f4 z2ef | g2g2 g2g2 | g2f2 f2f2 | f2e2 e2d2 |\
c2Bc A2dc | B2ed c2fe | d2gf e2ag | fede A2c2 | "^:S:"d8 |]
% - - - - - - - - - - - - - - - - - - - - - - - - -
%%begintext align
%% Set and cast off and cast up again, then set across
%% and turn single. 2d Cu. do the same, then all four
%% hands round and back again. the two Men and two
%% We. fall back and meet, turn hands with their
%% Partners, then fall back again as before, then
%% Right Hand and Left.
%%endtext
% - - - - - - - - - - - - - - - - - - - - - - - - -
%%sep 2 4 300
